X:4
T:Mountain Hornpipe
M:C
L:1/8
S:Darcie's TrTuneSbk Vo.2 (1998) p. 30
R:Hornpipe
Z: Wosika
K:G
|: (dc)| "G"BGDG Bdga| bagf "C"e2 dc| "G"BGDG BGBc| "D"dcBc A2 dc|
"G"BGDG Bdga| bagf "C"e2 dc| "G"Bgfg "D"ecAF| "G"G2 GF G2::
(ga)| "Emin"bagf efga| bagf e2 fg| "D"agfe defg| abaf d2 ef|
"G"gfgd "Emin"edBd| "Amin"cBAB "D"cdef| "G"gfgd "D"ecAF| "G"G2 GF G2:|
